!! 00000] TT[00
!! NN
!!!OTL: Jinse changzong huangbiao ma
!!!ARE: Neimeng Alashanmeng (Westen, N„he v.Ningxia)
!! Ethnic Group: Menggu
!! IV, 310
!!!SCT: C0417
!!!YEM: Copyright 1995, estate of Helmut Schaffrath.
**kern
*ICvox
*Ivox
*M3/4
*k[f#c#g#]
*A:
{8cc#
4.b
8b
24cc#
24ee
24cc#
=1
8b
8cc#
4.ff#
16gg#
16bb
=2
2.cc#}
=3
{8cc#
16b
16cc#
2ee
=4
8ff#
8ee
2cc#}
=5
{8ff#
[4.f#
8f#]
16b
16a
=6
8e
8f#
4.b
32cc#
32b
32cc#
32ee
=7
2a
8f#
8r}
=8
{8e
8f#
2a
=9
8b
8a
2f#}
==
!!!AGN: Muge. Zanmei guniang
!! sehr breite Melodie
!!    Vereinzelt Verzierungen.
!!!ONB: ESAC (Essen Associative Code) Database: CHINA
!!!AMT: simple triple
!!!AIN: vox
!!!EED: Helmut Schaffrath
!!!EEV: 1.0
*-
